svgs/light/books.svg

<svg xmlns="http://www.w3.org/2000/svg" viewBox="0 0 512 512"><!--! Font Awesome Pro 6.3.0 by @fontawesome - https://fontawesome.com License - https://fontawesome.com/license (Commercial License) Copyright 2023 Fonticons, Inc. --><path d="M510.4 435.4l-107.7-399.9C396.9 14.07 377.5 0 356.4 0c-4.111 0-8.296 .5313-12.46 1.641l-61.82 16.48c-1.281 .3438-2.375 .9922-3.592 1.445C269.7 7.758 255.8 0 240 0h-64c-12.35 0-23.49 4.797-32 12.46C135.5 4.797 124.3 0 112 0h-64C21.49 0 0 21.49 0 48v416C0 490.5 21.49 512 48 512h64c12.35 0 23.49-4.797 32-12.46C152.5 507.2 163.7 512 176 512h64c26.51 0 48-21.49 48-48V224.7l67.8 251.9C361.6 497.9 380.9 512 402.1 512c4.111 0 8.293-.5313 12.46-1.641l61.82-16.48C502 487 517.2 460.8 510.4 435.4zM32 48C32 39.18 39.18 32 48 32h64C120.8 32 128 39.18 128 48l.0011 48L32 96V48zM32 128l96 .0014v255.1L32 384V128zM112 480h-64C39.18 480 32 472.8 32 464V416l96 0L128 464C128 472.8 120.8 480 112 480zM256 464c0 8.824-7.178 16-16 16h-64C167.2 480 160 472.8 160 464l.0011-47.1L256 416V464zM256 384l-95.1 .0002V128L256 128V384zM256 96L160 96L160 48C160 39.18 167.2 32 176 32h64C248.8 32 256 39.18 256 48V96zM288 101.6V50.29c.834-.3906 1.322-.9727 2.322-1.242l61.82-16.48C353.5 32.19 354.1 32 356.4 32c7.225 0 13.57 4.828 15.43 11.74l12.4 46.07l-92.71 24.73L288 101.6zM366 391.4l-66.26-246.1l92.71-24.73l66.26 246.1L366 391.4zM477.9 455.5c-1.23 2.133-4.133 5.934-9.729 7.43l-61.82 16.48C404.1 479.8 403.5 480 402.1 480c-7.227 0-13.57-4.828-15.43-11.74l-12.4-46.07l92.71-24.73l12.44 46.22C480.9 449.1 479.1 453.4 477.9 455.5z"/></svg>

<svg xmlns="http://www.w3.org/2000/svg" viewBox="0 0 512 512"><!-- Font Awesome Pro 6.0.0-alpha2 by @fontawesome - https://fontawesome.com License - https://fontawesome.com/license (Commercial License) --><path d="M510.354 435.363L402.686 35.422C396.938 14.074 377.545 0 356.352 0C352.24 0 348.057 0.531 343.896 1.641L282.078 18.125C280.797 18.469 279.703 19.117 278.486 19.57C269.742 7.758 255.824 0 240 0H176C163.65 0 152.506 4.797 144 12.457C135.494 4.797 124.35 0 112 0H48C21.49 0 0 21.492 0 48V464C0 490.508 21.49 512 48 512H112C124.35 512 135.494 507.203 144 499.539C152.506 507.203 163.65 512 176 512H240C266.51 512 288 490.508 288 464V224.715L355.805 476.578C361.553 497.926 380.945 512 402.139 512C406.25 512 410.432 511.469 414.594 510.359L476.412 493.875C502.018 487.043 517.215 460.848 510.354 435.363ZM32 48C32 39.176 39.178 32 48 32H112C120.822 32 128 39.176 128 48V96H32V48ZM32 128H128V384H32V128ZM112 480H48C39.178 480 32 472.824 32 464V416H128V464C128 472.824 120.822 480 112 480ZM256 464C256 472.824 248.822 480 240 480H176C167.178 480 160 472.824 160 464V416H256V464ZM256 384H160V128H256V384ZM256 96H160V48C160 39.176 167.178 32 176 32H240C248.822 32 256 39.176 256 48V96ZM288 101.609V50.285C288.834 49.895 289.322 49.312 290.322 49.043L352.143 32.559C353.533 32.188 354.951 32 356.355 32C363.58 32 369.924 36.828 371.785 43.738L384.189 89.812L291.48 114.539L288 101.609ZM366.02 391.422L299.762 145.305L392.471 120.578L458.729 366.695L366.02 391.422ZM477.895 455.527C476.664 457.66 473.762 461.461 468.166 462.957L406.348 479.441C404.957 479.812 403.541 480 402.139 480C394.912 480 388.566 475.172 386.705 468.262L374.301 422.188L467.01 397.461L479.453 443.684C480.914 449.109 479.104 453.434 477.895 455.527Z"/></svg>
